public/sports/esports.svg

<svg width="56" height="56" viewBox="0 0 56 56" fill="none" xmlns="http://www.w3.org/2000/svg">
<path d="M33.6958 22.3047C32.4863 22.3047 31.5 23.2906 31.5 24.5036C31.5 25.7164 32.4865 26.7028 33.6958 26.7028C34.9133 26.7028 35.8995 25.7163 35.8995 24.5036C35.8996 23.2905 34.9133 22.3047 33.6958 22.3047Z" fill="white" stroke="black"/>
<path d="M38.4985 27.1118C37.289 27.1118 36.3052 28.0906 36.3052 29.3109C36.3052 30.521 37.289 31.5002 38.4985 31.5002C39.7176 31.5002 40.7022 30.5211 40.7022 29.3109C40.7023 28.0906 39.7176 27.1118 38.4985 27.1118Z" fill="white" stroke="black"/>
<path d="M14.7912 20.165C12.4243 20.165 10.5 22.1122 10.5 24.501C10.5 26.8925 12.4243 28.8348 14.7912 28.8348C17.1597 28.8348 19.0841 26.8925 19.0841 24.501C19.0841 22.1122 17.1598 20.165 14.7912 20.165ZM14.7791 26.628C13.6101 26.628 12.6634 25.6741 12.6634 24.501C12.6634 23.3279 13.6101 22.3746 14.7791 22.3746C15.9429 22.3746 16.8897 23.3281 16.8897 24.501C16.8897 25.6741 15.9429 26.628 14.7791 26.628Z" fill="white" stroke="black"/>
<path d="M38.4985 17.5C37.289 17.5 36.3052 18.4859 36.3052 19.6992C36.3052 20.9122 37.289 21.8958 38.4985 21.8958C39.7176 21.8958 40.7022 20.9122 40.7022 19.6992C40.7023 18.4859 39.7176 17.5 38.4985 17.5Z" fill="white" stroke="black"/>
<path d="M43.3069 22.3047C42.0923 22.3047 41.1084 23.2906 41.1084 24.5036C41.1084 25.7164 42.0922 26.7028 43.3069 26.7028C44.5165 26.7028 45.5002 25.7163 45.5002 24.5036C45.5002 23.2905 44.5165 22.3047 43.3069 22.3047Z" fill="white" stroke="black"/>
<path d="M50.9993 27.2197C48.6852 17.5432 46.2271 12.4006 41.3246 10.9414C40.2566 10.6241 39.3474 10.5 38.5083 10.5C35.4898 10.5 33.3745 12.106 27.9996 12.106C22.6211 12.106 20.5071 10.5002 17.4928 10.5C16.6544 10.5 15.7468 10.6241 14.6795 10.9414C9.77199 12.4006 7.31401 17.5432 5.00412 27.2197C2.68745 36.8965 3.10821 43.8844 5.84401 45.1888C6.28927 45.4016 6.74427 45.5 7.20617 45.5C9.57895 45.5 12.1432 42.8927 14.6064 39.8074C17.4123 36.2959 18.1188 36.2031 26.668 36.2031H29.3305C37.8779 36.2031 38.5867 36.2957 41.3926 39.8074C43.8564 42.8925 46.4206 45.4953 48.7935 45.4953C49.2557 45.4953 49.7105 45.3992 50.156 45.1865C52.8909 43.8821 53.3117 36.8965 50.9993 27.2197ZM49.4022 43.6096C49.2015 43.7054 49.008 43.75 48.7936 43.75C48.1349 43.75 47.2539 43.3071 46.2457 42.4694C45.2415 41.6349 44.134 40.445 42.7599 38.7245C41.3425 36.9505 40.1714 35.637 37.9991 35.0114C36.1783 34.4871 33.7746 34.4531 29.3306 34.4531H26.6681C22.2239 34.4531 19.8201 34.4871 17.9992 35.0115C15.8278 35.637 14.6567 36.9458 13.2389 38.7202C11.8655 40.4403 10.7582 41.6325 9.75395 42.4671C8.74595 43.3047 7.86504 43.7488 7.20627 43.7488C6.99496 43.7488 6.79601 43.7034 6.59727 43.6086C5.55209 43.1102 4.12846 38.3943 6.70643 27.6257C9.04563 17.8267 11.3419 13.7595 15.1785 12.6187C16.0134 12.3704 16.7704 12.2499 17.4928 12.2499C18.5583 12.2499 19.527 12.5033 20.7535 12.824C22.5111 13.2837 24.6988 13.856 27.9998 13.856C31.2972 13.856 33.4845 13.2841 35.242 12.8247C36.4702 12.5035 37.4405 12.25 38.5085 12.25C39.2324 12.25 39.9907 12.3708 40.8256 12.6187C44.6578 13.7593 46.9539 17.8268 49.2974 27.6265C51.8704 38.3951 50.447 43.1112 49.4022 43.6096Z" fill="white" stroke="black"/>
</svg>

<svg xmlns="http://www.w3.org/2000/svg" width="56" height="56" fill="none"><path fill="#fff" stroke="#000" d="M33.7 22.3a2.2 2.2 0 1 0 0 4.4 2.2 2.2 0 0 0 0-4.4ZM38.5 27.11a2.2 2.2 0 1 0 0 4.39 2.2 2.2 0 0 0 0-4.39ZM14.8 20.16a4.32 4.32 0 0 0-4.3 4.34c0 2.4 1.92 4.33 4.3 4.33 2.36 0 4.28-1.94 4.28-4.33a4.32 4.32 0 0 0-4.29-4.34Zm-.02 6.47a2.12 2.12 0 0 1 0-4.26c1.16 0 2.11.96 2.11 2.13s-.95 2.13-2.11 2.13ZM38.5 17.5a2.2 2.2 0 1 0 0 4.4 2.2 2.2 0 0 0 0-4.4ZM43.3 22.3a2.2 2.2 0 1 0 0 4.4 2.2 2.2 0 0 0 0-4.4Z"/><path fill="#fff" stroke="#000" d="M51 27.22c-2.31-9.68-4.77-14.82-9.68-16.28a9.74 9.74 0 0 0-2.81-.44c-3.02 0-5.14 1.6-10.51 1.6-5.38 0-7.5-1.6-10.5-1.6-.85 0-1.75.12-2.82.44-4.9 1.46-7.37 6.6-9.68 16.28-2.31 9.68-1.9 16.66.84 17.97.45.21.9.31 1.37.31 2.37 0 4.93-2.6 7.4-5.7 2.8-3.5 3.5-3.6 12.06-3.6h2.66c8.55 0 9.26.1 12.06 3.6 2.47 3.1 5.03 5.7 7.4 5.7.47 0 .92-.1 1.37-.31 2.73-1.3 3.15-8.3.84-17.97Zm-1.6 16.39c-.2.1-.4.14-.6.14-.67 0-1.55-.44-2.55-1.28-1-.84-2.12-2.02-3.49-3.75-1.42-1.77-2.59-3.08-4.76-3.7-1.82-.53-4.23-.57-8.67-.57h-2.66c-4.45 0-6.85.04-8.67.56-2.17.63-3.34 1.94-4.76 3.71a25.84 25.84 0 0 1-3.49 3.75c-1 .83-1.88 1.28-2.54 1.28-.22 0-.41-.05-.61-.14-1.05-.5-2.47-5.22.1-15.98 2.35-9.8 4.64-13.87 8.48-15.01.83-.25 1.59-.37 2.31-.37 1.07 0 2.04.25 3.26.57 1.76.46 3.95 1.04 7.25 1.04s5.48-.58 7.24-1.04c1.23-.32 2.2-.57 3.27-.57.72 0 1.48.12 2.32.37 3.83 1.14 6.12 5.2 8.47 15 2.57 10.78 1.15 15.5.1 15.99Z"/></svg>
